X:45
T:Steyrer Tanz in G, nr. 1
C:traditionell
R:Steirer
A:Hallstatt, Salzkammergut
B:Corpus Musicae Popularis Austriacae (COMPA), 5.Band: J.M.Schmalnauer " Tanz Musik", Verlag Boehlau, Wien 1996
S:manuscript des Johann Michael Schmalnauer um 1820
N:im der quelle in G
P:Einleitung-AABBA-Ausgang
Z:abc transcription Simon Wascher
F:http://simonwascher.info/TradArchiv/
M:3/4
L:1/8
K:G
V:1
%violino 1mo
|: .B.d.g |\
(fA) Tc2 .A.f | (gB) d2 B.g | fA c2 Af | .g.B.d.g .B.g |\
(fA) Tc2 .A.f | (gB) d2 .B.g | fAcf Af | g3 :|
|: .B.d.g |\
.f(Acf).A.f | gBdgBg | fAcfAf | gdBD GB |\
.f(Acf).A.f | gBdgBg | fAcfAf | g4 :|
V:2
%violino 2do
|: dgb |\
(ad) f2 .d.a | (bd) g2 .d.b | ad f2 da | bdgb db |\
(ad) f2 .d.a | (bd) g2 .d.b | ad fa da | b3 :|
|: .d.g.b |\
(ad)(fa).d.a | bdgb db | adfa da | d'bgdBd |\
(ad)(fa).d.a | bdgb db | adfa da | b3 :|
